public/images/logo/logo-dark.svg

<svg width="120" height="30" viewBox="0 0 120 30" fill="none" xmlns="http://www.w3.org/2000/svg">
<path d="M52.2778 9.38564C52.1596 8.27937 51.6614 7.41801 50.7831 6.80154C49.9133 6.18508 48.7817 5.87684 47.3883 5.87684C46.4087 5.87684 45.5685 6.02463 44.8676 6.32019C44.1666 6.61576 43.6304 7.01688 43.2588 7.52357C42.8873 8.03025 42.6973 8.60872 42.6888 9.25896C42.6888 9.79943 42.8113 10.2681 43.0562 10.665C43.3095 11.0619 43.6515 11.3997 44.0822 11.6784C44.5129 11.9486 44.99 12.1766 45.5136 12.3624C46.0371 12.5482 46.5649 12.7044 47.097 12.8311L49.5291 13.4391C50.5086 13.6671 51.4502 13.9754 52.3538 14.3638C53.2659 14.7523 54.0808 15.2421 54.7986 15.8332C55.5248 16.4243 56.0991 17.1379 56.5213 17.9739C56.9435 18.81 57.1547 19.7896 57.1547 20.9127C57.1547 22.4328 56.7662 23.7713 55.9893 24.9282C55.2124 26.0767 54.0892 26.976 52.6198 27.6263C51.1589 28.2681 49.3897 28.589 47.3123 28.589C45.294 28.589 43.5417 28.2765 42.0554 27.6516C40.5776 27.0267 39.4207 26.1147 38.5847 24.9155C37.7571 23.7164 37.3095 22.2554 37.2419 20.5327H41.8654C41.933 21.4363 42.2117 22.1879 42.7015 22.7874C43.1913 23.387 43.8288 23.8346 44.6142 24.1302C45.408 24.4257 46.2947 24.5735 47.2743 24.5735C48.2961 24.5735 49.1913 24.4215 49.9597 24.1175C50.7367 23.805 51.3447 23.3744 51.7838 22.8255C52.2229 22.2681 52.4467 21.6179 52.4552 20.8747C52.4467 20.1991 52.2483 19.6418 51.8598 19.2027C51.4713 18.7551 50.9267 18.3835 50.2257 18.0879C49.5333 17.7839 48.7226 17.5137 47.7937 17.2773L44.8422 16.5172C42.7057 15.9683 41.0167 15.1365 39.7754 14.0218C38.5424 12.8987 37.926 11.4082 37.926 9.55031C37.926 8.02181 38.3398 6.68331 39.1673 5.53483C40.0034 4.38634 41.1392 3.49542 42.5748 2.86207C44.0104 2.22027 45.636 1.89937 47.4516 1.89937C49.2926 1.89937 50.9055 2.22027 52.2905 2.86207C53.6839 3.49542 54.7775 4.3779 55.5713 5.50949C56.3651 6.63265 56.7746 7.92469 56.8 9.38564H52.2778Z" fill="white"/>
<path d="M69.6286 28.5763C67.7285 28.5763 66.0818 28.1583 64.6884 27.3223C63.295 26.4862 62.2141 25.3167 61.4456 23.8135C60.6856 22.3103 60.3056 20.5538 60.3056 18.544C60.3056 16.5341 60.6856 14.7734 61.4456 13.2618C62.2141 11.7502 63.295 10.5763 64.6884 9.74031C66.0818 8.90428 67.7285 8.48627 69.6286 8.48627C71.5287 8.48627 73.1754 8.90428 74.5688 9.74031C75.9622 10.5763 77.0389 11.7502 77.7989 13.2618C78.5674 14.7734 78.9516 16.5341 78.9516 18.544C78.9516 20.5538 78.5674 22.3103 77.7989 23.8135C77.0389 25.3167 75.9622 26.4862 74.5688 27.3223C73.1754 28.1583 71.5287 28.5763 69.6286 28.5763ZM69.6539 24.9029C70.6842 24.9029 71.5456 24.62 72.238 24.0542C72.9305 23.4799 73.4456 22.7114 73.7834 21.7487C74.1297 20.786 74.3028 19.7136 74.3028 18.5313C74.3028 17.3406 74.1297 16.2639 73.7834 15.3012C73.4456 14.33 72.9305 13.5573 72.238 12.9831C71.5456 12.4089 70.6842 12.1217 69.6539 12.1217C68.5983 12.1217 67.7201 12.4089 67.0192 12.9831C66.3267 13.5573 65.8074 14.33 65.4611 15.3012C65.1233 16.2639 64.9544 17.3406 64.9544 18.5313C64.9544 19.7136 65.1233 20.786 65.4611 21.7487C65.8074 22.7114 66.3267 23.4799 67.0192 24.0542C67.7201 24.62 68.5983 24.9029 69.6539 24.9029Z" fill="white"/>
<path d="M87.4291 2.25405V28.1963H82.8436V2.25405H87.4291Z" fill="white"/>
<path d="M92.1444 28.1963V8.73961H96.7299V28.1963H92.1444ZM94.4498 5.97818C93.7236 5.97818 93.0987 5.7375 92.5751 5.25615C92.0515 4.76636 91.7897 4.17945 91.7897 3.49542C91.7897 2.80295 92.0515 2.21604 92.5751 1.73469C93.0987 1.2449 93.7236 1 94.4498 1C95.1845 1 95.8094 1.2449 96.3246 1.73469C96.8481 2.21604 97.1099 2.80295 97.1099 3.49542C97.1099 4.17945 96.8481 4.76636 96.3246 5.25615C95.8094 5.7375 95.1845 5.97818 94.4498 5.97818Z" fill="white"/>
<path d="M108.666 28.5383C107.137 28.5383 105.769 28.1456 104.561 27.3603C103.354 26.5749 102.4 25.4349 101.699 23.9402C100.998 22.4454 100.647 20.6298 100.647 18.4933C100.647 16.3314 101.002 14.5074 101.711 13.0211C102.429 11.5264 103.396 10.399 104.612 9.63898C105.828 8.87051 107.183 8.48627 108.678 8.48627C109.818 8.48627 110.756 8.6805 111.49 9.06896C112.225 9.44897 112.808 9.90921 113.238 10.4497C113.669 10.9817 114.003 11.4842 114.239 11.9571H114.429V2.25405H119.027V28.1963H114.518V25.1309H114.239C114.003 25.6038 113.661 26.1062 113.213 26.6383C112.765 27.1618 112.174 27.6094 111.44 27.981C110.705 28.3525 109.78 28.5383 108.666 28.5383ZM109.945 24.7762C110.916 24.7762 111.744 24.5144 112.428 23.9908C113.112 23.4588 113.631 22.7199 113.986 21.7741C114.34 20.8283 114.518 19.7262 114.518 18.468C114.518 17.2097 114.34 16.1161 113.986 15.1872C113.639 14.2583 113.124 13.5362 112.44 13.0211C111.765 12.506 110.933 12.2484 109.945 12.2484C108.923 12.2484 108.07 12.5144 107.386 13.0464C106.702 13.5785 106.187 14.3131 105.841 15.2505C105.494 16.1879 105.321 17.2604 105.321 18.468C105.321 19.684 105.494 20.7692 105.841 21.7234C106.195 22.6692 106.715 23.4166 107.399 23.9655C108.091 24.506 108.94 24.7762 109.945 24.7762Z" fill="white"/>
<path d="M14.1018 0H9.70653C6.6163 0 3.83545 1.88051 2.70105 4.755C1.75791 7.14488 0.800021 9.5991 0.355245 10.8148C-1.67327 18.9585 5.5672 21.4993 7.39139 21.8251C10.8319 22.5722 13.4751 20.5646 14.4975 19.2015C14.6341 19.0193 14.4588 18.797 14.2364 18.8462C9.09203 19.986 7.8014 15.5713 8.56408 13.8117L14.1018 0Z" fill="#006BFF"/>
<path d="M11.1402 30L15.5354 30C18.6256 30 21.4065 28.1195 22.5409 25.245C23.484 22.8551 24.4419 20.4009 24.8867 19.1852C26.9152 11.0415 19.6747 8.50067 17.8506 8.17492C14.41 7.42777 11.7669 9.43537 10.7445 10.7985C10.6078 10.9807 10.7832 11.203 11.0055 11.1538C16.1499 10.014 17.4405 14.4287 16.6779 16.1883L11.1402 30Z" fill="#57EBB9"/>
</svg>

<svg xmlns="http://www.w3.org/2000/svg" width="120" height="30" fill="none"><path fill="#fff" d="M52.278 9.386q-.177-1.66-1.495-2.584-1.304-.925-3.395-.925-1.47 0-2.52.443-1.052.444-1.61 1.204a2.93 2.93 0 0 0-.57 1.735q0 .811.368 1.406.381.596 1.026 1.013.645.406 1.432.684.784.278 1.583.47l2.432.607q1.47.342 2.825.925a10 10 0 0 1 2.445 1.47 6.5 6.5 0 0 1 1.722 2.14q.633 1.254.634 2.939 0 2.28-1.166 4.015-1.165 1.723-3.37 2.698-2.19.963-5.307.963-3.027 0-5.257-.937-2.216-.937-3.47-2.736-1.242-1.8-1.343-4.383h4.623q.102 1.355.837 2.254.735.9 1.912 1.343 1.19.444 2.66.444 1.533 0 2.686-.457 1.166-.468 1.824-1.291.659-.837.671-1.951-.013-1.014-.595-1.672-.583-.672-1.634-1.115a16 16 0 0 0-2.432-.81l-2.952-.76q-3.204-.825-5.067-2.496-1.85-1.685-1.849-4.472 0-2.292 1.241-4.015 1.254-1.723 3.408-2.673 2.153-.963 4.877-.963 2.76 0 4.839.963 2.09.95 3.28 2.647 1.191 1.686 1.229 3.877zm17.351 19.19q-2.85 0-4.94-1.254t-3.243-3.508q-1.14-2.256-1.14-5.27 0-3.015 1.14-5.282 1.152-2.268 3.242-3.522t4.94-1.254 4.94 1.254 3.23 3.522q1.154 2.267 1.154 5.282t-1.153 5.27q-1.14 2.254-3.23 3.508t-4.94 1.254m.025-3.673q1.546 0 2.584-.849 1.039-.861 1.545-2.305.52-1.444.52-3.218 0-1.785-.52-3.23-.506-1.457-1.545-2.318t-2.584-.861q-1.584 0-2.635.861-1.038.861-1.558 2.318-.507 1.445-.507 3.23 0 1.774.507 3.218.52 1.443 1.558 2.305 1.052.849 2.635.849M87.43 2.254v25.942h-4.586V2.254zm4.714 25.942V8.74h4.586v19.456zM94.45 5.978q-1.089 0-1.875-.722-.785-.735-.785-1.76 0-1.04.785-1.761A2.65 2.65 0 0 1 94.45 1q1.102 0 1.875.735.785.722.785 1.76 0 1.026-.785 1.761-.773.722-1.875.722m14.216 22.56q-2.293 0-4.105-1.178-1.81-1.177-2.862-3.42t-1.052-5.447q0-3.243 1.064-5.472 1.077-2.242 2.901-3.382 1.824-1.152 4.066-1.153 1.71 0 2.812.583 1.103.57 1.748 1.38a8.4 8.4 0 0 1 1.001 1.508h.19V2.254h4.598v25.942h-4.509v-3.065h-.279q-.354.71-1.026 1.507-.672.785-1.773 1.343-1.103.557-2.774.557m1.279-3.762q1.457 0 2.483-.785 1.026-.798 1.558-2.217.531-1.419.532-3.306 0-1.887-.532-3.28-.52-1.395-1.546-2.167-1.013-.773-2.495-.773-1.533 0-2.559.798-1.026.799-1.545 2.205-.52 1.406-.52 3.217 0 1.824.52 3.255.531 1.42 1.558 2.242 1.038.811 2.546.811"/><path fill="#006BFF" d="M14.102 0H9.707A7.525 7.525 0 0 0 2.7 4.755C1.758 7.145.8 9.599.355 10.815c-2.028 8.144 5.212 10.684 7.036 11.01 3.44.747 6.084-1.26 7.107-2.623.136-.183-.04-.405-.262-.356-5.144 1.14-6.435-3.275-5.672-5.034z"/><path fill="#57EBB9" d="M11.14 30h4.395c3.09 0 5.872-1.88 7.006-4.755.943-2.39 1.9-4.844 2.346-6.06 2.028-8.143-5.212-10.684-7.036-11.01-3.441-.747-6.084 1.26-7.106 2.624-.137.182.038.404.26.355 5.145-1.14 6.435 3.275 5.673 5.034z"/></svg>
